X:65
M:6/8
L:1/8
K:A
|: E2(e e)dc | fga ecA | E2(e e)cA | GAB BGE | A2c cfg | agf edc | dfB ceA | dBG A3 :|
|: ecA fdB | ecA BGE | ecA fdB | fga ecA | ecA fdB | ecA BGE | fga ecA | dBG A3 :|

